X: 1748
T: Apples In Winter
R: jig
M: 6/8
K: Edorian
BEE def|gfe fdB|AFA AdF|FEE E2:|
|:e|e/f/ge fed|e/f/ge fed|d/e/fe dAF|DFA def|
edB def|gbg edB|AFA AdF|FEE E2:|

